_site/img/contents.svg

<svg width="24" height="24" viewBox="0 0 24 24" fill="none" xmlns="http://www.w3.org/2000/svg">
<path d="M5.34334 13.0601C4.97019 13.0601 4.65316 12.9293 4.39226 12.6678C4.13075 12.4069 4 12.0899 4 11.7167C4 11.3436 4.13075 11.0265 4.39226 10.7656C4.65316 10.5041 4.97019 10.3734 5.34334 10.3734C5.71649 10.3734 6.03352 10.5041 6.29443 10.7656C6.55593 11.0265 6.68669 11.3436 6.68669 11.7167C6.68669 12.0899 6.55593 12.4069 6.29443 12.6678C6.03352 12.9293 5.71649 13.0601 5.34334 13.0601ZM5.34334 7.68669C4.97019 7.68669 4.65316 7.55593 4.39226 7.29443C4.13075 7.03352 4 6.71649 4 6.34334C4 5.97019 4.13075 5.65316 4.39226 5.39226C4.65316 5.13075 4.97019 5 5.34334 5C5.71649 5 6.03352 5.13075 6.29443 5.39226C6.55593 5.65316 6.68669 5.97019 6.68669 6.34334C6.68669 6.71649 6.55593 7.03352 6.29443 7.29443C6.03352 7.55593 5.71649 7.68669 5.34334 7.68669ZM5.34334 18.4334C4.97019 18.4334 4.65316 18.3027 4.39226 18.0412C4.13075 17.7803 4 17.4632 4 17.0901C4 16.7169 4.13075 16.3999 4.39226 16.139C4.65316 15.8775 4.97019 15.7467 5.34334 15.7467C5.71649 15.7467 6.03352 15.8775 6.29443 16.139C6.55593 16.3999 6.68669 16.7169 6.68669 17.0901C6.68669 17.4632 6.55593 17.7803 6.29443 18.0412C6.03352 18.3027 5.71649 18.4334 5.34334 18.4334ZM9.37337 17.9856C9.11963 17.9856 8.90708 17.8997 8.73573 17.7277C8.56378 17.5564 8.47781 17.3438 8.47781 17.0901C8.47781 16.8363 8.56378 16.6238 8.73573 16.4524C8.90708 16.2805 9.11963 16.1945 9.37337 16.1945H19.2246C19.4783 16.1945 19.6908 16.2805 19.8622 16.4524C20.0341 16.6238 20.1201 16.8363 20.1201 17.0901C20.1201 17.3438 20.0341 17.5564 19.8622 17.7277C19.6908 17.8997 19.4783 17.9856 19.2246 17.9856H9.37337ZM9.37337 12.6123C9.11963 12.6123 8.90708 12.5263 8.73573 12.3544C8.56378 12.183 8.47781 11.9705 8.47781 11.7167C8.47781 11.463 8.56378 11.2501 8.73573 11.0782C8.90708 10.9068 9.11963 10.8212 9.37337 10.8212H19.2246C19.4783 10.8212 19.6908 10.9068 19.8622 11.0782C20.0341 11.2501 20.1201 11.463 20.1201 11.7167C20.1201 11.9705 20.0341 12.183 19.8622 12.3544C19.6908 12.5263 19.4783 12.6123 19.2246 12.6123H9.37337ZM9.37337 7.2389C9.11963 7.2389 8.90708 7.15323 8.73573 6.98188C8.56378 6.80993 8.47781 6.59709 8.47781 6.34334C8.47781 6.0896 8.56378 5.87676 8.73573 5.70481C8.90708 5.53346 9.11963 5.44778 9.37337 5.44778H19.2246C19.4783 5.44778 19.6908 5.53346 19.8622 5.70481C20.0341 5.87676 20.1201 6.0896 20.1201 6.34334C20.1201 6.59709 20.0341 6.80993 19.8622 6.98188C19.6908 7.15323 19.4783 7.2389 19.2246 7.2389H9.37337Z" fill="#202122"/>
</svg>

<svg xmlns="http://www.w3.org/2000/svg" width="24" height="24" fill="none"><path fill="#202122" d="M5.343 13.06c-.373 0-.69-.13-.95-.392A1.293 1.293 0 0 1 4 11.717c0-.373.13-.69.392-.951.261-.262.578-.393.951-.393s.69.131.951.393c.262.26.393.578.393.95 0 .374-.131.69-.393.952-.26.261-.578.392-.95.392Zm0-5.373c-.373 0-.69-.131-.95-.393A1.293 1.293 0 0 1 4 6.344c0-.374.13-.69.392-.952.261-.261.578-.392.951-.392s.69.13.951.392c.262.261.393.578.393.951s-.131.69-.393.951c-.26.262-.578.393-.95.393Zm0 10.746c-.373 0-.69-.13-.95-.392a1.293 1.293 0 0 1-.393-.95c0-.374.13-.691.392-.952.261-.261.578-.392.951-.392s.69.13.951.392c.262.26.393.578.393.951s-.131.69-.393.951c-.26.262-.578.392-.95.392Zm4.03-.447a.864.864 0 0 1-.637-.258.864.864 0 0 1-.258-.638c0-.254.086-.466.258-.638a.864.864 0 0 1 .637-.258h9.852c.253 0 .466.087.637.258a.865.865 0 0 1 .258.638.864.864 0 0 1-.258.638.864.864 0 0 1-.637.258H9.373Zm0-5.374a.864.864 0 0 1-.637-.258.864.864 0 0 1-.258-.637c0-.254.086-.467.258-.639a.866.866 0 0 1 .637-.257h9.852c.253 0 .466.086.637.257a.867.867 0 0 1 .258.639.865.865 0 0 1-.258.637.864.864 0 0 1-.637.258H9.373Zm0-5.373a.866.866 0 0 1-.637-.257.867.867 0 0 1-.258-.639c0-.253.086-.466.258-.638a.866.866 0 0 1 .637-.257h9.852c.253 0 .466.085.637.257a.867.867 0 0 1 .258.638.867.867 0 0 1-.258.639.866.866 0 0 1-.637.257H9.373Z"/></svg>
